img/clock-tablet.svg

<svg width="72" height="71" viewBox="0 0 72 71" fill="none" xmlns="http://www.w3.org/2000/svg">
	<path d="M36.5057 10.9192V0.508815C36.5057 0.373869 36.4521 0.24445 36.3568 0.149028C36.2615 0.0536071 36.1323 0 35.9975 0C35.8627 0 35.7334 0.0536071 35.6381 0.149028C35.5428 0.24445 35.4892 0.373869 35.4892 0.508815V10.9192H36.5057Z" fill="white" />
	<path d="M23.2614 14.4707C23.5511 14.2926 23.8458 14.1247 24.1406 13.9619L18.9364 4.95585C18.8661 4.8451 18.7557 4.76584 18.6284 4.73462C18.5011 4.70339 18.3667 4.72263 18.2532 4.78831C18.1397 4.85398 18.0559 4.96102 18.0194 5.08706C17.9829 5.21309 17.9964 5.34838 18.0572 5.46467L23.2614 14.4707Z" fill="white" />
	<path d="M5.33635 17.6711C5.26966 17.7874 5.25147 17.9252 5.28573 18.0548C5.31999 18.1844 5.40392 18.2952 5.51931 18.3631L14.5098 23.5886C14.6724 23.2935 14.8401 22.9984 15.018 22.7084L6.03261 17.4829C5.97461 17.4492 5.91053 17.4274 5.84406 17.4187C5.7776 17.4099 5.71006 17.4144 5.64534 17.4319C5.58063 17.4494 5.52001 17.4796 5.46697 17.5206C5.41394 17.5617 5.36955 17.6128 5.33635 17.6711Z" fill="white" />
	<path d="M54.08 4.3351C54.0223 4.30125 53.9585 4.27913 53.8923 4.27002C53.826 4.2609 53.7586 4.26497 53.6939 4.28199C53.6292 4.299 53.5686 4.32864 53.5153 4.36918C53.4621 4.40973 53.4174 4.4604 53.3838 4.51827L47.895 13.9822C48.1897 14.1501 48.4845 14.318 48.7742 14.491L54.263 5.03218C54.2968 4.97441 54.3189 4.91052 54.328 4.84419C54.3371 4.77786 54.3331 4.71037 54.3161 4.64562C54.2991 4.58086 54.2695 4.52009 54.229 4.46681C54.1885 4.41352 54.1379 4.36877 54.08 4.3351Z" fill="white" />
	<path d="M66.9737 18.1494C67.0319 18.1162 67.083 18.0717 67.124 18.0186C67.165 17.9655 67.1951 17.9049 67.2126 17.8401C67.2301 17.7753 67.2346 17.7077 67.2258 17.6411C67.2171 17.5746 67.1953 17.5104 67.1617 17.4523C67.1281 17.3945 67.0834 17.3438 67.0302 17.3033C66.9769 17.2627 66.9163 17.2331 66.8516 17.2161C66.7869 17.199 66.7195 17.195 66.6532 17.2041C66.587 17.2132 66.5232 17.2353 66.4654 17.2692L57.0074 22.7491C57.1802 23.034 57.3479 23.3292 57.5156 23.6294L66.9737 18.1494Z" fill="white" />
	<path d="M11.435 35.5C11.435 35.3321 11.435 35.1591 11.435 34.9912H0.508223C0.373434 34.9912 0.244166 35.0448 0.148855 35.1402C0.0535448 35.2356 0 35.3651 0 35.5C0 35.6349 0.0535448 35.7644 0.148855 35.8598C0.244166 35.9552 0.373434 36.0088 0.508223 36.0088H11.4503C11.4452 35.8409 11.435 35.673 11.435 35.5Z" fill="white" />
	<path d="M71.4918 34.9912H60.5497C60.5497 35.1591 60.5497 35.3321 60.5497 35.5C60.5497 35.6679 60.5497 35.8409 60.5497 36.0088H71.4918C71.6266 36.0088 71.7558 35.9552 71.8512 35.8598C71.9465 35.7644 72 35.6349 72 35.5C72 35.3651 71.9465 35.2356 71.8512 35.1402C71.7558 35.0448 71.6266 34.9912 71.4918 34.9912Z" fill="white" />
	<path d="M66.4756 52.6369L57.4902 47.4114C57.3276 47.7065 57.1599 48.0016 56.982 48.2916L65.9674 53.5171C66.0448 53.5611 66.1325 53.5839 66.2215 53.5833C66.3324 53.5821 66.4399 53.5447 66.5276 53.4767C66.6153 53.4087 66.6783 53.3138 66.7071 53.2066C66.7359 53.0993 66.7289 52.9856 66.6871 52.8827C66.6453 52.7799 66.571 52.6935 66.4756 52.6369Z" fill="white" />
	<path d="M5.02125 52.8506C4.96343 52.8842 4.91283 52.929 4.87233 52.9823C4.83183 53.0356 4.80223 53.0963 4.78523 53.1611C4.76824 53.2259 4.76417 53.2933 4.77328 53.3597C4.78238 53.426 4.80447 53.4899 4.83829 53.5477C4.88306 53.6253 4.94754 53.6897 5.02518 53.7344C5.10283 53.7791 5.19089 53.8024 5.28044 53.8021C5.37018 53.803 5.45832 53.7782 5.53455 53.7308L14.9926 48.256C14.8147 47.966 14.6521 47.6708 14.4844 47.3706L5.02125 52.8506Z" fill="white" />
	<path d="M48.7386 56.5293C48.4489 56.7074 48.1542 56.8753 47.8543 57.0381L53.0585 66.0442C53.1033 66.1218 53.1678 66.1862 53.2454 66.2309C53.3231 66.2756 53.4111 66.2989 53.5007 66.2986C53.5904 66.2994 53.6786 66.2747 53.7548 66.2273C53.8702 66.1594 53.9541 66.0486 53.9884 65.919C54.0226 65.7894 54.0044 65.6516 53.9377 65.5353L48.7386 56.5293Z" fill="white" />
	<path d="M17.7319 65.9678C17.6983 66.0259 17.6765 66.09 17.6678 66.1566C17.659 66.2231 17.6636 66.2907 17.681 66.3555C17.6985 66.4203 17.7286 66.481 17.7696 66.5341C17.8106 66.5872 17.8617 66.6317 17.92 66.6649C18.036 66.7317 18.1737 66.7499 18.3032 66.7156C18.4326 66.6813 18.5433 66.5972 18.6111 66.4817L24.105 57.0178C23.8052 56.8499 23.5104 56.687 23.2258 56.509L17.7319 65.9678Z" fill="white" />
	<path d="M35.4892 60.0808V70.4912C35.4892 70.6261 35.5428 70.7555 35.6381 70.851C35.7334 70.9464 35.8627 71 35.9975 71C36.1323 71 36.2615 70.9464 36.3568 70.851C36.4521 70.7555 36.5057 70.6261 36.5057 70.4912V60.0808H35.4892Z" fill="white" />
	<path d="M53.2313 26.4024C53.3181 26.3523 53.3941 26.2855 53.4551 26.206C53.5161 26.1265 53.5609 26.0357 53.5868 25.9388C53.6128 25.842 53.6195 25.7409 53.6064 25.6415C53.5934 25.5421 53.5609 25.4462 53.5108 25.3593C53.4608 25.2725 53.3941 25.1963 53.3147 25.1352C53.2352 25.0742 53.1445 25.0294 53.0478 25.0034C52.9511 24.9774 52.8501 24.9707 52.7508 24.9838C52.6515 24.9968 52.5557 25.0294 52.469 25.0795L38.0202 33.4495C37.7535 33.1818 37.4366 32.9694 37.0878 32.8245C36.7389 32.6796 36.365 32.605 35.9873 32.605C35.6096 32.605 35.2357 32.6796 34.8868 32.8245C34.538 32.9694 34.2211 33.1818 33.9544 33.4495L23.6426 27.4302C23.4673 27.3276 23.2586 27.299 23.0622 27.3505C22.8659 27.402 22.698 27.5295 22.5956 27.705C22.4932 27.8804 22.4645 28.0894 22.516 28.2859C22.5675 28.4825 22.6948 28.6506 22.8701 28.7531L33.2175 34.7673C33.1155 35.1627 33.0986 35.5752 33.1679 35.9776C33.2373 36.38 33.3914 36.763 33.6199 37.1012C33.8484 37.4394 34.1461 37.7252 34.4933 37.9394C34.8406 38.1536 35.2293 38.2915 35.6338 38.3438C36.0383 38.3962 36.4493 38.3618 36.8395 38.243C37.2297 38.1242 37.5902 37.9237 37.8971 37.6548C38.204 37.3858 38.4503 37.0546 38.6196 36.6831C38.7889 36.3116 38.8773 35.9083 38.8791 35.5C38.8787 35.2543 38.8462 35.0097 38.7825 34.7724L53.2313 26.4024ZM35.9975 36.884C35.7291 36.884 35.4667 36.8043 35.2436 36.655C35.0204 36.5057 34.8465 36.2936 34.7438 36.0453C34.6411 35.7971 34.6142 35.5239 34.6666 35.2604C34.7189 34.9969 34.8482 34.7548 35.0379 34.5648C35.2277 34.3748 35.4695 34.2454 35.7327 34.193C35.996 34.1406 36.2688 34.1675 36.5167 34.2703C36.7647 34.3731 36.9766 34.5473 37.1257 34.7707C37.2748 34.9941 37.3544 35.2567 37.3544 35.5254C37.3478 35.8813 37.2019 36.2204 36.9481 36.4697C36.6943 36.719 36.353 36.8586 35.9975 36.8585V36.884Z" fill="white" />
</svg>

<svg width="72" height="71" fill="none" xmlns="http://www.w3.org/2000/svg"><path d="M36.506 10.92V.508a.51.51 0 00-1.017 0v10.41h1.017zm-13.245 3.55c.29-.177.585-.345.88-.508l-5.205-9.006a.508.508 0 00-.879.509l5.204 9.006zM5.336 17.671a.51.51 0 00.183.692l8.99 5.226c.163-.295.331-.59.509-.88l-8.985-5.226a.506.506 0 00-.697.188zM54.08 4.335a.508.508 0 00-.696.183l-5.489 9.464c.295.168.59.336.88.509l5.488-9.459a.51.51 0 00-.183-.697zM66.974 18.15a.508.508 0 10-.509-.88l-9.458 5.48c.173.284.34.58.509.88l9.458-5.48zM11.435 35.5v-.509H.508a.508.508 0 000 1.018H11.45c-.005-.168-.015-.336-.015-.509zm60.057-.509H60.55v1.018h10.942a.508.508 0 000-1.018zm-5.016 17.646L57.49 47.41c-.162.295-.33.59-.508.88l8.985 5.226a.507.507 0 00.509-.88zm-61.455.213a.507.507 0 00-.183.698.509.509 0 00.697.183l9.458-5.475c-.178-.29-.34-.585-.509-.885l-9.463 5.48zm43.718 3.68c-.29.177-.585.345-.885.508l5.205 9.006a.51.51 0 00.442.255.509.509 0 00.437-.763l-5.2-9.007zm-31.007 9.438a.509.509 0 00.88.514l5.493-9.464c-.3-.168-.595-.331-.88-.509l-5.493 9.459zM35.49 60.08v10.411a.51.51 0 001.016 0v-10.41h-1.017zm17.741-33.678a.763.763 0 00-.762-1.323L38.02 33.45a2.871 2.871 0 00-4.066 0l-10.311-6.02a.765.765 0 00-1.127.856.766.766 0 00.354.467l10.348 6.014a2.885 2.885 0 001.275 3.172A2.875 2.875 0 0038.88 35.5c0-.246-.033-.49-.096-.728l14.448-8.37zM35.998 36.884a1.356 1.356 0 01-1.331-1.624 1.36 1.36 0 011.85-.99 1.357 1.357 0 01.837 1.255 1.359 1.359 0 01-1.356 1.334v.025z" fill="#fff"/></svg>
